X:43
T:J N Hamberger's Q.S. 
C:To J.N. Hamberger 12th.U.S. Inf. by A..Hopkins Fife Major
B:American Veteran Fifer, #43
M:6/8
L:1/8
Q:1/8=280
K:D
|: d|e>fe dzB|AGB AGE|AGA ABd|ede a3|e>fe dzB|A(GB) AGE|ABd ege|dBG A2 :|
|: z|e>(fa) e>(fa)|ede g3|-g>(ef) g>(ef)|g(fa) ged|e>(fa) e>(fa)|ede g3|ege dBG|A3 A2 :|
